!!!!SEGMENT: pl-sa--l-1636--018_anonim--keyboard-piece.krn
!!!cenid: 17xx:725
!!!COM: Anonim
!!!COM-rismID: pe30004985
!!!CDT:
!!!CNT:
!!!OTL: [Keyboard piece]
!!!PDT:
!!!AGN: Secular
!!!SMS-siglum: PL-SA
!!!SMS-shelfmark: L 1636
!!!SMS-shelfwork: 018 W
!!!SMS-variant:
!!!SMS-altvar:
!!!NIFC-rismSourceID: 1001076411
!!!NIFC-rismChildID: 1001076411
!!!NIFC-islandoraID:
!!!URL-pdf-islandora:
!!!URL-scan:
!!!IIIF:
!!!ONB-nifc: 5v-6r, skan 0009, s. 3-5
!!!AIN: 1 empty
!!!key:
**kern	**kern
*part1	*part1
*staff2	*staff1
*Iempty	*Iempty
*I"	*I"
*I'keyb	*I'keyb
*clefF4	*clefC1
*k[]	*k[]
*d:	*d:
*M2/2	*M2/2
*met(c|)	*met(c|)
=1	=1
*^	*
*2\right	*2\right	*2\right
!LO:TX:a:t=P:problem=all\right&colon; global	!	!LO:TX:a:t=P:problem=all\right&colon; global
!LO:N:vis=4	!	!
[>2d/	2D\	8dd\L
.	.	8cc\J
.	.	(>8.b-XT>\L
.	.	16a\Jk)
8d/L]	2D\	8b-X\L
8c/J	.	8a\J
!	!	!LO:N:n=2:vis=4
(>8.B-XT>/L	.	(>8.gT>/L 8.cc
16A/Jk)	.	16f#X/Jk)
=2	=2	=2
[>2G/	2D\	8b-X\L
.	.	16cc\L
.	.	16dd\JJ
.	.	8.ccT>\L
.	.	16b-\Jk
8G/L]	2C#X\	[<2a\
16A/L	.	.
16G/JJ	.	.
(>8.F#Xt>/L	.	.
16E/Jk)	.	.
=3	=3	=3
2F#X/ 2A	2D\	8a\L]
.	.	16b-\L
.	.	16dd\JJ
.	.	8f#X/L
.	.	16g/L
.	.	16a/JJ
8F#/L	2BB\	[<2g/
16G/L	.	.
16A/JJ	.	.
8D/L	.	.
16E/L	.	.
16F#/JJ	.	.
=4	=4	=4
*	*	*^
2E/	2C\	8g/L]	2.ryy
.	.	16a/L	.
.	.	16b/JJ	.
.	.	8e/L	.
.	.	16f/L	.
.	.	16g/JJ	.
!!LO:LB:g=original
8D/L	2ryy	8f#X/L	.
16C/L	.	16e/L	.
16BB/JJ	.	16d/JJ	.
8BB/L	.	[<4g/	8d\L
16AA/L	.	.	16c\L
16GG/JJ	.	.	16B\JJ
=5	=5	=5	=5
8AA/L	2ryy	2g/]	8c\L
16BB/L	.	.	16d\L
16C/JJ	.	.	16e\JJ
8.BBt>/L	.	.	8.dT>\L
16AA/Jk	.	.	16c\Jk
*clefC3	*	*clefG2	*
4ryy	2G\	16g/LL	2ryy
.	.	16d/	.
.	.	16e/	.
.	.	16f#X/JJ	.
4d/	.	16g/LL	.
.	.	16b/	.
.	.	16a/	.
.	.	16g/JJ	.
*	*	*v	*v
=6	=6	=6
[>2d/	2F#X\	16a\LL
.	.	16b\
.	.	16cc\
.	.	16dd\JJ
.	.	16ee\LL
.	.	16ff\
.	.	16gg\
.	.	16aa\JJ
4d/]	[<4E\	16gg\LL
.	.	16aa\
.	.	16bb\
.	.	16aa\JJ
4c#X/	4E\] 4A	16bb\LL
.	.	16ee\
.	.	16ff\
.	.	16gg\JJ
*v	*v	*
=7	=7
*	*^
16d\LL	2ff/	4ee\
16A\	.	.
16B\	.	.
16c\JJ	.	.
16d\LL	.	4dd\
16f#X\	.	.
16e\	.	.
16d\JJ	.	.
!!LO:PB:g=original
16g\LL	2ee/	4dd\
16e\	.	.
!LO:SIC:s=16f#	!	!
16fny\	.	.
16g\JJ	.	.
16a\LL	.	4cc\
16g\	.	.
!LO:SIC:s=16f#	!	!
16f\	.	.
16e\JJ	.	.
=8	=8	=8
*^	*	*
!LO:TX:a:t=P:problem=# above	!	!	!
16f#\LL	2ryy	4dd/	4cc\
16d\	.	.	.
16e\	.	.	.
16f#\JJ	.	.	.
[<4g\	.	16r	4ryy
.	.	16b\LL	.
.	.	16cc\	.
.	.	16dd\JJ	.
!	!	!LO:TX:a:t=P:problem=# above	!
4g/]	[<2A\	8cc#\L	2ryy
.	.	16b\L	.
.	.	16a\JJ	.
8f#X/L	.	8dd\L	.
16g/L	.	16ee\L	.
16f#/JJ	.	16dd\JJ	.
*	*	*v	*v
=9	=9	=9
!	!	!LO:TX:a:t=P:problem=# above
8e/L	2A\]	8cc#\L
16f/L	.	16dd\L
16g/JJ	.	16ee\JJ
8.f/L	.	8.dd\L
!	!	!LO:TX:a:t=P:problem=# above
16e/Jk	.	16cc#X\Jk
2f/ 2a	2d\	2f#/ 2a 2dd
!	!LO:TX:a:t=P:problem=końcowa kreska z obustronną repetycją	!
*v	*v	*
==	==
*-	*-
!!!system-decoration: {(s1,s2)}
!!!RDF**kern: > = above
!!!RDF**kern: < = below
!!!EED: Mateusz Mrugas
!!!EEV: 2020-12-07
!!!ENC: Tomasz Grochalski
!!!END: 2020-06-11
!!!YEC: Copyright 2022 Narodowy Instytut Fryderyka Chopina (https://polishscores.org)
!!!YEM: License CC-BY-4.0 (https://creativecommons.org/licenses/by/4.0)
